X:73
T:Mysterious Number One, The
R:hornpipe
D:Cran: The Crooked Stair
Z:id:hn-hornpipe-73
M:C|
K:G
GA|~B3G A2GE|DGGF G2 (3Bcd|edge dBAG|EAAG A2GA|
~B3G EFGA|BA (3Bcd efge|dcBA GcBA|G2E2 E2:|
|:zf|g2fe defg|add^c d3f|~g3f efga|b2a2 a2ga|
bagb a2gf|edef g2fe|dcBA GcBA|G2E2 E2:|
<end>
<start>
